src/images/icon/icon_normal_applications.svg

<svg height="20" viewBox="0 0 20 20" width="20" xmlns="http://www.w3.org/2000/svg"><g fill="none" fill-rule="evenodd" transform="translate(1.639246 .977959)"><path d="m14.917 11.990862 1.5011023.851616c.404541.2294484.404541.6014577 0 .830906l-7.32486209 4.1545297c-.40454096.2294484-1.06043145.2294484-1.46497241 0l-7.32486208-4.1545297c-.40454096-.2294483-.40454096-.6014576 0-.830906l1.50059428-.851616 5.08424007 2.8838655c.86354758.4897886 2.08148029.4897886 2.94502787 0z" fill="#b6c2cd"/><path d="m14.917 7.73293102 1.5011023.85161601c.404541.22944834.404541.6014576 0 .83090594l-7.32486209 4.15452973c-.40454096.2294484-1.06043145.2294484-1.46497241 0l-7.32486208-4.15452973c-.40454096-.22944834-.40454096-.6014576 0-.83090594l1.50059428-.85161601 5.08424007 2.88386548c.86354758.4897886 2.08148029.4897886 2.94502787 0z" fill="#b6c2cd"/><path d="m9.09324021.17208626 7.32486209 4.15452974c.404541.22944834.404541.60145761 0 .83090595l-7.32486209 4.15452975c-.40454096.22944834-1.06043145.22944834-1.46497241 0l-7.32486208-4.15452975c-.40454096-.22944834-.40454096-.60145761 0-.83090595l7.32486208-4.15452974c.40454096-.22944835 1.06043145-.22944835 1.46497241 0z" fill="#36435c"/></g></svg>

<?xml version="1.0" encoding="UTF-8"?>
<svg width="20px" height="20px" viewBox="0 0 20 20" version="1.1" xmlns="http://www.w3.org/2000/svg" xmlns:xlink="http://www.w3.org/1999/xlink">
    
    <g id="Dashboard" stroke="none" stroke-width="1" fill="none" fill-rule="evenodd">
        <g id="00-Menu-交互备份" transform="translate(-75.000000, -152.000000)">
            <g id="编组-15" transform="translate(75.000000, 152.000000)">
                <g id="编组-16" transform="translate(1.639246, 0.977959)">
                    <path d="M14.917,11.990862 L16.4181023,12.842478 C16.8226433,13.0719264 16.8226433,13.4439357 16.4181023,13.673384 L9.09324021,17.8279137 C8.68869925,18.0573621 8.03280876,18.0573621 7.6282678,17.8279137 L0.303405721,13.673384 C-0.10113524,13.4439357 -0.10113524,13.0719264 0.303405721,12.842478 L1.804,11.990862 L6.88824007,14.8747275 C7.75178765,15.3645161 8.96972036,15.3645161 9.83326794,14.8747275 L14.917,11.990862 Z" id="形状" fill="#B6C2CD"></path>
                    <path d="M14.917,7.73293102 L16.4181023,8.58454703 C16.8226433,8.81399537 16.8226433,9.18600463 16.4181023,9.41545297 L9.09324021,13.5699827 C8.68869925,13.7994311 8.03280876,13.7994311 7.6282678,13.5699827 L0.303405721,9.41545297 C-0.10113524,9.18600463 -0.10113524,8.81399537 0.303405721,8.58454703 L1.804,7.73293102 L6.88824007,10.6167965 C7.75178765,11.1065851 8.96972036,11.1065851 9.83326794,10.6167965 L14.917,7.73293102 Z" id="形状" fill="#B6C2CD"></path>
                    <path d="M9.09324021,0.172086257 L16.4181023,4.326616 C16.8226433,4.55606434 16.8226433,4.92807361 16.4181023,5.15752195 L9.09324021,9.3120517 C8.68869925,9.54150004 8.03280876,9.54150004 7.6282678,9.3120517 L0.303405721,5.15752195 C-0.10113524,4.92807361 -0.10113524,4.55606434 0.303405721,4.326616 L7.6282678,0.172086257 C8.03280876,-0.0573620855 8.68869925,-0.0573620855 9.09324021,0.172086257 Z" id="矩形" fill="#36435C"></path>
                </g>
            </g>
        </g>
    </g>
</svg>
